ix/document-1_bold.svg

<svg viewBox="0 0 24 24" fill="none" xmlns="http://www.w3.org/2000/svg" height="1em" width="1em">
  <path d="M20.5 10.19H17.61C15.24 10.19 13.31 8.26 13.31 5.89V3C13.31 2.45 12.86 2 12.31 2H8.07C4.99 2 2.5 4 2.5 7.57V16.43C2.5 20 4.99 22 8.07 22H15.93C19.01 22 21.5 20 21.5 16.43V11.19C21.5 10.64 21.05 10.19 20.5 10.19Z" fill="#292D32"/>
  <path d="M15.7997 2.21048C15.3897 1.80048 14.6797 2.08048 14.6797 2.65048V6.14048C14.6797 7.60048 15.9197 8.81048 17.4297 8.81048C18.3797 8.82048 19.6997 8.82048 20.8297 8.82048C21.3997 8.82048 21.6997 8.15048 21.2997 7.75048C19.8597 6.30048 17.2797 3.69048 15.7997 2.21048Z" fill="#292D32"/>
</svg>

<svg viewBox="0 0 24 24" fill="none" xmlns="http://www.w3.org/2000/svg" height="1em" width="1em">
  <path d="M20.5 10.19h-2.89c-2.37 0-4.3-1.93-4.3-4.3V3c0-.55-.45-1-1-1H8.07C4.99 2 2.5 4 2.5 7.57v8.86C2.5 20 4.99 22 8.07 22h7.86c3.08 0 5.57-2 5.57-5.57v-5.24c0-.55-.45-1-1-1Z" fill="#292D32"/>
  <path d="M15.8 2.21c-.41-.41-1.12-.13-1.12.44v3.49c0 1.46 1.24 2.67 2.75 2.67.95.01 2.27.01 3.4.01.57 0 .87-.67.47-1.07-1.44-1.45-4.02-4.06-5.5-5.54Z" fill="#292D32"/>
</svg>
